icons/icn_catalogo.svg

<svg width="24" xmlns="http://www.w3.org/2000/svg" height="24" id="screenshot-7f4951e7-eba4-8056-8006-51ce5473f519" viewBox="0 0 24 24" xmlns:xlink="http://www.w3.org/1999/xlink" fill="none" version="1.1"><g id="shape-7f4951e7-eba4-8056-8006-51ce5473f519"><g class="frame-container-wrapper"><g class="frame-container-blur"><g class="frame-container-shadows"><g fill="none"><g class="fills" id="fills-7f4951e7-eba4-8056-8006-51ce5473f519"><rect rx="0" ry="0" x="0" y="0" width="24" height="24.000000000000455" transform="matrix(1, 0, 0, 1, 0, 0)" class="frame-background"/></g><g class="frame-children"><g id="shape-796dcf21-9a76-80bf-8006-51cf0030ec6d" rx="0" ry="0"><g id="shape-7f4951e7-eba4-8056-8006-51ce29a153a8" style="opacity: 1;"><g class="fills" id="fills-7f4951e7-eba4-8056-8006-51ce29a153a8"><path d="M5.263030052185059,1.9954535961151123C3.4656667709350586,1.9954535961151123,1.991545557975769,3.4674994945526123,1.991545557975769,5.264984607696533L1.991545557975769,18.737640380859375C1.991545557975769,20.535003662109375,3.4656667709350586,22.007171630859375,5.263030052185059,22.007171630859375L18.741544723510742,22.007171630859375C20.538908004760742,22.007171630859375,22.013029098510742,20.535003662109375,22.013029098510742,18.737640380859375L22.013029098510742,5.264984607696533C22.013029098510742,3.4674994945526123,20.538908004760742,1.9954535961151123,18.741544723510742,1.9954535961151123ZM5.263030052185059,3.6341254711151123L15.593108177185059,3.6341254711151123C15.986174583435059,3.8482367992401123,16.255216598510742,4.276703357696533,16.255216598510742,4.800140857696533L16.255216598510742,19.202484130859375C16.255216598510742,19.725799560546875,15.986174583435059,20.154266357421875,15.593108177185059,20.368499755859375L5.263030052185059,20.368499755859375C4.345793724060059,20.368499755859375,3.6321706771850586,19.654876708984375,3.6321706771850586,18.737640380859375L3.6321706771850586,18.036468505859375L3.9993581771850586,18.036468505859375L7.005217552185059,18.036468505859375L7.102873802185059,18.036468505859375C7.324309349060059,18.616424560546875,7.880461692810059,19.000091552734375,8.501311302185059,19.001312255859375C9.329680442810059,19.001312255859375,10.001311302185059,18.329681396484375,10.001311302185059,17.501312255859375C10.001311302185059,16.672821044921875,9.329680442810059,16.001312255859375,8.501311302185059,16.001312255859375C7.880461692810059,16.002410888671875,7.324309349060059,16.386077880859375,7.102873802185059,16.966156005859375L7.005217552185059,16.966156005859375L3.9993581771850586,16.966156005859375L3.6321706771850586,16.966156005859375L3.6321706771850586,12.536469459533691L3.9993581771850586,12.536469459533691L7.005217552185059,12.536469459533691L7.102873802185059,12.536469459533691C7.324309349060059,13.116425514221191,7.880461692810059,13.500092506408691,8.501311302185059,13.501313209533691C9.329680442810059,13.501313209533691,10.001311302185059,12.829682350158691,10.001311302185059,12.001313209533691C10.001311302185059,11.172821998596191,9.329680442810059,10.501313209533691,8.501311302185059,10.501313209533691C7.880461692810059,10.502411842346191,7.324309349060059,10.886078834533691,7.102873802185059,11.466156959533691L7.005217552185059,11.466156959533691L3.9993581771850586,11.466156959533691L3.6321706771850586,11.466156959533691L3.6321706771850586,7.036468982696533L3.9993581771850586,7.036468982696533L7.005217552185059,7.036468982696533L7.102873802185059,7.036468982696533C7.324309349060059,7.616425037384033,7.880461692810059,8.000092506408691,8.501311302185059,8.001313209533691C9.329680442810059,8.001313209533691,10.001311302185059,7.329681873321533,10.001311302185059,6.501312732696533C10.001311302185059,5.672821521759033,9.329680442810059,5.001312732696533,8.501311302185059,5.001312732696533C7.880461692810059,5.002411365509033,7.324309349060059,5.386078357696533,7.102873802185059,5.966156482696533L7.005217552185059,5.966156482696533L3.9993581771850586,5.966156482696533L3.6321706771850586,5.966156482696533L3.6321706771850586,5.264984607696533C3.6321706771850586,4.347626209259033,4.345793724060059,3.6341254711151123,5.263030052185059,3.6341254711151123ZM17.483732223510742,3.6341254711151123L18.741544723510742,3.6341254711151123C19.658781051635742,3.6341254711151123,20.366544723510742,4.347626209259033,20.366544723510742,5.264984607696533L20.366544723510742,18.737640380859375C20.366544723510742,19.654876708984375,19.658781051635742,20.368499755859375,18.741544723510742,20.368499755859375L17.483732223510742,20.368499755859375C17.645597457885742,20.011566162109375,17.737638473510742,19.616912841796875,17.737638473510742,19.202484130859375L17.737638473510742,4.800140857696533C17.737638473510742,4.385590076446533,17.645597457885742,3.9910590648651123,17.483732223510742,3.6341254711151123Z" style="display: inline; stroke-linecap: round; stroke-linejoin: round; fill: rgb(0, 0, 0); fill-opacity: 1;"/></g></g></g></g></g></g></g></g></g></svg>

<svg fill="none" viewBox="0 0 24 24"><g class="frame-container-wrapper"><g class="frame-container-blur"><g class="frame-container-shadows"><g class="fills"><rect width="24" height="24" class="frame-background" rx="0" ry="0"/></g><g class="frame-children"><path fill="#000" d="M5.263 1.9955c-1.7973 0-3.2715 1.472-3.2715 3.2695v13.4726c0 1.7974 1.4742 3.2696 3.2715 3.2696h13.4785c1.7974 0 3.2715-1.4722 3.2715-3.2696V5.265c0-1.7975-1.474-3.2695-3.2715-3.2695Zm0 1.6386h10.3301c.393.2141.6621.6426.6621 1.166v14.4024c0 .5233-.269.9518-.662 1.166H5.263c-.9172 0-1.6308-.7136-1.6308-1.6309v-.7011h3.4707c.2214.58.7776.9636 1.3984.9648.8284 0 1.5-.6716 1.5-1.5 0-.8285-.6716-1.5-1.5-1.5a1.4998 1.4998 0 0 0-1.3984.9649H3.6322v-4.4297h3.4707c.2214.58.7776.9636 1.3984.9648.8284 0 1.5-.6716 1.5-1.5 0-.8285-.6716-1.5-1.5-1.5a1.4998 1.4998 0 0 0-1.3984.9649H3.6322V7.0365h3.4707c.2214.58.7776.9636 1.3984.9648.8284 0 1.5-.6716 1.5-1.5 0-.8285-.6716-1.5-1.5-1.5a1.4998 1.4998 0 0 0-1.3984.9649H3.6322V5.265c0-.9174.7136-1.6309 1.6308-1.6309Zm12.2207 0h1.2578c.9173 0 1.625.7135 1.625 1.6309v13.4726c0 .9173-.7077 1.6309-1.625 1.6309h-1.2578c.1619-.357.254-.7516.254-1.166V4.8c0-.4145-.0921-.809-.254-1.166Z" class="fills"/></g></g></g></g></svg>
